X:3
T:Mad John's
T:Harmony 2
C:Chris Armstrong
L:1/8
R:Jig
M:6/8
K:D
Q:"118 bpm"
[| {g}f2A {g}Adf | {a}gB{G}B {ag}a2g | {a}f2{AGAG}A adf | {g}ec{d}A age | 
{gfg}f2A {g}Adf | {a}gB{G}B {ag}a2g | {a}fda {ef}eca | d{g}d{G}d {g}dag | 
{e}f2A {g}Adf | {a}gB{G}B {ag}a2g | {a}f2{AGAG}A a2{AGAG}A | {g}ec{d}A age |
{g}A3 A3 | G3 G3 | A3 A3 | A3 A3 | 
d3 d3 | d3 B3  | a2A d3 | c3 cBA |
d3 d3  | d3 B3 |  dAd cAc | A3 ABc |
{g}A3 A3 | G3 G3 | a2A d2A | A3 cBA |
A3 A3 | B3 B3 | {gAGAG}A3 A3 [M:9|8] | A3 (B3 B3)| age {g}deg {a}edB [M:2/4] |  {gAGAG}A4 |]
